!!!!SEGMENT: pl-kk--kk-i-10--002-002_pekiel-bartlomiej--missa-paschalis-et-in-terra.krn
!!!cenid: 16xx:1186
!!!COM: Pękiel, Bartłomiej
!!!COM-rismid: pe30105642
!!!CDT: <1633-~1670
!!!CNT: Polish
!!!OPR: Missa Paschalis
!!!OTL: Et in terra
!!!OMV: 002
!!!PDT:
!!!AGN: Sacred; Mass
!!!SMS-siglum: PL-Kk
!!!SMS-shelfmark: Kk.I.10
!!!SMS-shelfwork: 002-002 M
!!!SMS-variant:
!!!SMS-altvar:
!!!NIFC-rismid: 1001151830
!!!URL-scan: http://repozytorium.nifc.pl/skany/pl-kk-nut--i-10
!!!ONB-nifc: UWAGA: części Mszy: 1. Kyrie, 2. Et in terra, 3. Patrem, 4. Sanctus, 5. Agnus Dei.
!!!AIN: 1 bass 2 tenor
!!!key:
**kern	**text	**kern	**text	**kern	**text
*part3	*part3	*part2	*part2	*part1	*part1
*staff3	*staff3	*staff2	*staff2	*staff1	*staff1
*Ibass	*	*Itenor	*	*Itenor	*
*I"Bassus.	*	*I"Tenor ſecundus.	*	*I"Tenor 1mus	*
*I'B	*	*I'T 2	*	*I'T 1	*
*clefF4	*	*clefC4	*	*clefC4	*
*k[]	*	*k[]	*	*k[]	*
*d:dor	*	*d:dor	*	*d:dor	*
*M2/1	*	*M2/1	*	*M2/1	*
*met(C|)	*	*met(C|)	*	*met(C|)	*
*all\right	*	*all\right	*	*all\right	*
=1-	=1-	=1-	=1-	=1-	=1-
4.D/	Et	2A/	Et	4.f\	Et
8D/	in	.	.	8f\	in
4C#X/	ter-	2A/	in	8e\L	ter-
.	.	.	.	8d\	.
!	!	!	!	!LO:TX:a:t=P:problem=# above	!
2AA/	-ra	.	.	8c#X\	.
.	.	.	.	8B\J	.
.	.	4.A/	ter-	8c#X\L	-ra
.	.	.	.	8B\	.
*	*ij	*	*	*	*
8.A\	Et	.	.	8c#\J	.
.	.	8A/	-ra	8d\	pax
16A\	in	.	.	.	.
*	*	*	*	*2\right	*
4E\	ter-	4B\	pax	2.e\	ho-
!LO:TX:t=P:problem=kreska pseudotaktowa	!	!	!	!	!
4C#/	-ra	4c\	.	.	.
*	*Xij	*	*	*	*
=2-	=2-	=2-	=2-	=2-	=2-
8D/L	Pax	4A/	ho-	.	.
8Cny/J	.	.	.	.	.
*	*	*2\right	*	*	*
8BB-X/L	.	2B-X\	-mi-	4d\	-mi-
*custos:GG	*	*	*	*	*
8AA/J	.	.	.	.	.
4GG/	Ho-	.	.	4.d\	-ni-
8.AA/	-mi-	4A/	-ni-	.	.
!	!	!	!	!LO:TX:a:t=P:problem=# above	!
.	.	.	.	8c#X\	.
!LO:TX:t=P:problem=kreska pseudotaktowa	!	!	!	!	!
16AA/	-ni-	.	.	.	.
1D	-bus	1A	-bus	1d	-b(us)
=3-	=3-	=3-	=3-	=3-	=3-
*M3/1	*	*M3/1	*	*M3/1	*
0D	Bo-	0A	Bo-	0d	Bo-
!LO:TX:t=P:problem=kreska pseudotaktowa	!	!	!	!	!
1BBny	-na(e)	1Bny	-nae	1d	-nae
=4-	=4-	=4-	=4-	=4-	=4-
2AA/	Vo-	0c	Vo-	0.e	Vo-
2BB/	.	.	.	.	.
2C/	.	.	.	.	.
2D/	.	.	.	.	.
*2\right	*	*	*	*	*
2.E\	.	1B	-lun-	.	.
!LO:TX:t=P:problem=kreska pseudotaktowa	!	!	!	!	!
4E\	-lun-	.	.	.	.
=5-	=5-	=5-	=5-	=5-	=5-
*lig	*	*	*	*	*
1F	-ta-	0A	-ta-	1cny	-lun-
*	*	*	*	*lig	*
1D	.	.	.	1d	-ta-
*Xlig	*	*	*	*	*
!	!	!LO:TX:a:t=P:problem=# above	!	!	!
1E	.	1G#X	.	1B	.
*	*	*	*	*Xlig	*
=6-	=6-	=6-	=6-	=6-	=6-
*M2/1	*	*M2/1	*	*M2/1	*
*met(C|)	*	*met(C|)	*	*met(C|)	*
4AA/	-tis	2A/	-tis	2c\	-tis
4A\	Lau-	.	.	.	.
*	*	*custos:B	*	*custos:G	*
4.F#X\	da-	2d\	Lau-	2A/	Lau-
!LO:TX:t=P:problem=kreska pseudotaktowa	!	!	!	!	!
8F#\	-mus	.	.	.	.
!	!	!LO:LB:g=original	!	!LO:LB:g=original	!
4G\	te	4B\	-da-	4.G/	-da-
8.G\	be-	8B\	-mus	.	.
.	.	8B\	Lau-	8d\	-mus
*custos:C	*	*	*	*	*
16G\	-ne-	.	.	.	.
!LO:LB:g=original	!	!	!	!	!
4C/	di-	4c\	-da-	4c\	be-
8C/	-ci-	4Gny/	-m(us)	8.c\	-ne-
!LO:TX:t=P:problem=kreska pseudotaktowa	!	!	!	!	!
8C/	-mus	.	.	.	.
.	.	.	.	16c\	-di-
=7-	=7-	=7-	=7-	=7-	=7-
4Fny\	te	4A/	te	4.c\	-ci-
8.F\	a-	8.A/	a-	.	.
.	.	.	.	8c\	-m(us)
16F\	-do-	16A/	-do-	.	.
4.C/	-ra-	4.G/	-ra-	4.c\	te
!LO:TX:t=P:problem=kreska pseudotaktowa	!	!	!	!	!
8D/	-mus	8F/	-m(us)	8A/	a-
4AA/	te	2E/	te	4A/	-do-
4AA/	glo-	.	.	4c#X\	-ra-
4.FF/	-ri-	4rF	.	4d\	-mus
.	.	4A/	Glo-	8d\	te
!LO:TX:t=P:problem=kreska pseudotaktowa	!	!	!	!	!
8FF/	-fi-	.	.	8d\	.
=8-	=8-	=8-	=8-	=8-	=8-
4AA/	-ca-	2.A/	-ri-	[2cny\	glo-
4.A\	.	.	.	.	.
.	.	.	.	8c]	.
16G\LL	.	.	.	8d\	-ri-
16F\JJ	.	.	.	.	.
!LO:TX:t=P:problem=kreska pseudotaktowa	!	!	!	!	!
4E\	.	4B\	-fi-	2e\	-fi-
4.F\	.	2.A/	-ca-	.	.
.	.	.	.	2d\	-ca-
8G\	.	.	.	.	.
4A\	.	.	.	.	.
!LO:TX:t=P:problem=kreska pseudotaktowa	!	!	!	!LO:TX:a:t=P:problem=# above	!
4AA/	-mus	4A/	-mus	4c#X\	-mus
=9-	=9-	=9-	=9-	=9-	=9-
*custos:D	*	*	*	*	*
!LO:TX:t=P:problem=kreska pseudotaktowa	!	!	!	!	!
1D	te	1A	te	1d	te
!LO:PB:g=original	!	!	!	!	!
=10-	=10-	=10-	=10-	=10-	=10-
*M3/1	*	*M3/1	*	*M3/1	*
1.D	Gra-	1.A	Gra-	1.d	Gra-
2D/	-ti-	2A\	-ti-	2d\	-ti-
*	*	*custos:c	*	*custos:e	*
!LO:TX:t=P:problem=kreska pseudotaktowa	!	!	!	!	!
1BB	-as	1B	-as	1d	-as
!	!	!LO:LB:g=original	!	!LO:LB:g=original	!
=11-	=11-	=11-	=11-	=11-	=11-
0AA	a-	0c	a-	0e	[a]-
!LO:TX:t=P:problem=kreska pseudotaktowa	!	!	!	!	!
1E	-gi-	1B	-gi-	1e	[g]i-
=12-	=12-	=12-	=12-	=12-	=12-
1F	-mus	1A	-mus	1cny	-m(us)
*lig	*	*	*	*lig	*
1D	ti-	2d\	Ti-	1f	Ti-
.	.	2c\	.	.	.
!LO:TX:t=P:problem=kreska pseudotaktowa	!	!	!	!	!
1E	.	1B	.	1e	.
*Xlig	*	*	*	*Xlig	*
=13-	=13-	=13-	=13-	=13-	=13-
!LO:TX:t=P:problem=kreska pseudotaktowa	!	!LO:N:acc=-	!	!	!
0.AA	-bi	0.cn	bi	0.e	-bi
=14-	=14-	=14-	=14-	=14-	=14-
1.A	pro-	1.c	pro-	1.e	pro-
2A\	-pter	2c\	-pter	2e\	-pter
2E\	ma-	2.Bny\	ma-	2e\	ma-
!LO:TX:t=P:problem=kreska pseudotaktowa	!	!	!	!	!
2E\	-gna(m)	.	.	2e\	-gna(m)
.	.	4B\	-gna(m)	.	.
=15-	=15-	=15-	=15-	=15-	=15-
1.F	g(lo-	1.A	g(lo-	1.c	g(lo-
2F\	-ri)-	2A/	-ri)-	2c\	-ri)-
!LO:TX:t=P:problem=kreska pseudotaktowa	!	!	!	!	!
1C	-am	1G	-am	1c	-am
=16-	=16-	=16-	=16-	=16-	=16-
*	*ij	*	*ij	*	*ij
1.F	pro-	1.A	pro-	1.c	pro-
2F\	-pter	2A/	-pter	2c\	-pter
2C/	ma-	2.G/	ma-	2c\	ma-
*custos:D	*	*	*	*	*
!LO:TX:t=P:problem=kreska pseudotaktowa	!	!	!	!	!
2C/	-gna(m)	.	.	2c\	-gna(m)
.	.	4G/	-gna(m)	.	.
!LO:LB:g=original	!	!	!	!	!
=17-	=17-	=17-	=17-	=17-	=17-
1.D	g(lo-	1.F	g(lo-	1.A	g(lo-
2D/	-ri)-	2F/	-ri)-	2A/	-ri)-
*	*	*custos:D	*	*custos:F	*
!LO:TX:t=P:problem=kreska pseudotaktowa	!	!	!	!	!
1AA	-am	1E	-am	1A	-am
*	*Xij	*	*Xij	*	*Xij
!	!	!LO:LB:g=original	!	!LO:PB:g=original	!
=18-	=18-	=18-	=18-	=18-	=18-
0BB-X	glo-	1.D	glo-	2F/	glo-
.	.	.	.	4G/	.
.	.	.	.	4A/	.
.	.	.	.	2B-X\	.
.	.	2D/	-ri-	2c\	.
!LO:TX:t=P:problem=kreska pseudotaktowa	!	!	!	!	!
1GG	-ri-	1B-X	-am	1d	-ri-
=19-	=19-	=19-	=19-	=19-	=19-
1FF	-am	0.A	tu-	0d	-am
0AA	Tu-	.	.	.	.
!	!	!	!	!LO:TX:a:t=P:problem=# above	!
.	.	.	.	1c#X	Tu-
=20-	=20-	=20-	=20-	=20-	=20-
0.D	-am	0.A	-am	0.d	-am
=21-	=21-	=21-	=21-	=21-	=21-
*M2/1	*	*M2/1	*	*M2/1	*
*met(C|)	*	*met(C|)	*	*met(C|)	*
2rC	.	4.A/	D(o-	1rA	.
.	.	16A/	-mi)-	.	.
.	.	16A/	-ne	.	.
4.D/	D(o-	8d\	DE-	.	.
.	.	8d\	-VS	.	.
.	.	8d\	Rex	.	.
16D/	-mi)-	8c\	cae-	.	.
!LO:TX:t=P:problem=kreska pseudotaktowa	!	!	!	!	!
16D/	-ne	.	.	.	.
8G\	DE-	(<4.Bny\	-leſ-	4.Bny\	D(o-
8G\	-(us)	.	.	.	.
8G\	Rex	.	.	.	.
8F\	cae-	8A/	.	16B\	-mi)-
.	.	.	.	16B\	-ne
4.E\	-leſ-	4G/)	-tis	8e\	DE-
.	.	.	.	8e\	-us
.	.	8G/	DE-	8e\	Rex
!LO:TX:t=P:problem=kreska pseudotaktowa	!	!	!	!	!
8E\	-tis	8G/	-VS	8d\	cae-
=22-	=22-	=22-	=22-	=22-	=22-
4.A\	De-	1A	Pa-	8cny\	-leſ-
.	.	.	.	8c\	-tis
.	.	.	.	8c\	DE-
*	*	*	*	*custos:f	*
8G\	-(us)	.	.	8c\	-(us)
!LO:TX:t=P:problem=kreska pseudotaktowa	!	!	!	!LO:LB:g=original	!
2F\	Pa-	.	.	8f\L	Pa-
.	.	.	.	8g\	.
.	.	.	.	8f\	.
.	.	.	.	8e\J	.
!LO:LB:g=original	!	!	!	!	!
4G\	-ter	4B\	-ter	4d\	.
*	*	*custos:c	*	*	*
4A\	om-	4c\	om-	8c\	-ter
.	.	.	.	8c\	o-
!	!	!LO:PB:g=original	!	!	!
4.G\	-ni-	4.c\	-mni-	4.d\	-mni-
!LO:TX:t=P:problem=kreska pseudotaktowa	!	!	!	!	!
8G\	-po-	8B\	-po-	8d\	-po-
=23-	=23-	=23-	=23-	=23-	=23-
!LO:TX:t=P:problem=kreska pseudotaktowa	!	!	!	!	!
1C	-tens	4c\	-tens	1e	-tens
.	.	2G/	D(o-	.	.
.	.	8G/	-mi)-	.	.
.	.	8G/	-ne	.	.
4AA/	D(o-	2c\	Fi-	0r	.
8AA/	-mi)-	.	.	.	.
8AA/	-ne	.	.	.	.
4E\	Fi-	2B\	-li	.	.
!LO:TX:t=P:problem=kreska pseudotaktowa	!	!	!	!	!
4BBny/	-li	.	.	.	.
=24-	=24-	=24-	=24-	=24-	=24-
4.D/	V-	8A/L	V-	.	.
.	.	8G/	.	.	.
!	!	!LO:TX:b:t=P:problem=# below	!	!	!
.	.	8F#X/	-ni-	.	.
8C/	-ni-	8E/J	.	.	.
4.BB/	-ge-	4.D/	-ge-	.	.
!LO:TX:t=P:problem=kreska pseudotaktowa	!	!	!	!	!
8BB/	-ni-	8D/	-ni-	.	.
2AA/	-te	2E/	-te	8A\L	JE-
.	.	.	.	8B\	.
.	.	.	.	8c\	.
.	.	.	.	8d\J	.
8AA/L	JE-	2c\	JE-	2e\	.
8BB/	.	.	.	.	.
8C/	.	.	.	.	.
!LO:TX:t=P:problem=kreska pseudotaktowa	!	!	!	!	!
8D/J	.	.	.	.	.
=25-	=25-	=25-	=25-	=25-	=25-
2E\	-SV	2G/	-SV	2B\	-SV
!LO:TX:t=P:problem=kreska pseudotaktowa	!	!	!	!	!
2BB/	.	2.B\	CHri-	2d\	.
4.C/	CHri-	.	.	2c\	CHri-
.	.	2A/	.	.	.
8D\	.	.	.	.	.
*custos:AA	*	*	*	*	*
!LO:TX:t=P:problem=kreska pseudotaktowa	!	!	!	!	!
2E\	.	.	.	2B\	.
!	!	!LO:TX:b:t=P:problem=# below	!	!	!
.	.	4G#X/	.	.	.
!LO:LB:g=original	!	!	!	!	!
=26-	=26-	=26-	=26-	=26-	=26-
2AA/	-ste	2A/	ſte	2A/	-ſte
!	!	!	!	!LO:TX:a:t=P:problem=# above	!
4AA/	D(o-	4A/	D(o-	4c#X\	D(o-
8AA/	-mi)-	8A/	-mi)-	8c#\	-mi)-
!LO:TX:t=P:problem=kreska pseudotaktowa	!	!	!	!	!
8AA/	-ne	8A/	-ne	8c#\	-ne
!	!	!LO:LB:g=original	!	!	!
4D/	DE-	2B\	DE-	4d\	DE-
*	*	*	*	*custos:e	*
4BB/	-us	.	.	4d\	-VS
!	!	!	!	!LO:LB:g=original	!
8E\L	Ag-	2B\	-VS	2.e\	A-
8F#X\	.	.	.	.	.
8G\	.	.	.	.	.
!LO:TX:t=P:problem=kreska pseudotaktowa	!	!	!	!	!
8A\J	.	.	.	.	.
=27-	=27-	=27-	=27-	=27-	=27-
4.B\	-nus	2.B\	a-	.	.
.	.	.	.	2d\	.
8A\	.	.	.	.	.
4G#X\	DE-	.	.	.	.
8A\L	.	4A/	-gnus	8cny\L	-gnus
!LO:TX:t=P:problem=kreska pseudotaktowa	!	!	!	!	!
8G#\J	.	.	.	8B\J	.
8F#X\L	.	2A/	DE-	8A/L	DE-
8E\J	.	.	.	8G/J	.
4F#\	.	.	.	4A/	-I
!LO:TX:t=P:problem=kreska pseudotaktowa	!	!LO:TX:b:t=P:problem=# below	!	!	!
2E\	-i	2G#X/	-I	4B\	.
.	.	.	.	4.e\	Fi-
=28-	=28-	=28-	=28-	=28-	=28-
4.A\	Fi-	1rA	.	.	.
.	.	.	.	8e\J	-li-
.	.	.	.	4c#X\	-us
8A\	-li-	.	.	.	.
!LO:TX:t=P:problem=kreska pseudotaktowa	!	!	!	!	!
2F#X\	-us	.	.	[2d\	Pa-
4.D/	Pa-	4rF	.	8dL\]	.
.	.	.	.	16c#\L	.
.	.	.	.	16B\JJ	.
.	.	4.d\	Fi-	4A\	.
8C/L	.	.	.	.	.
8BB/	.	.	.	2B\	-tris
8AA/J	.	8c\	-li-	.	.
*custos:C	*	*	*	*	*
!LO:TX:t=P:problem=kreska pseudotaktowa	!	!	!	!	!
4GG/	.	4B\	-us	.	.
!LO:LB:g=original	!	!	!	!	!
=29-	=29-	=29-	=29-	=29-	=29-
8C/L	.	1Gny	Pa-	2.cny\	Qui
8D/	.	.	.	.	.
8E/	.	.	.	.	.
8Fny/J	.	.	.	.	.
4Gny\	.	.	.	.	.
!LO:TX:t=P:problem=kreska pseudotaktowa	!	!	!	!	!
4GG/	.	.	.	2B\	.
2AA/	.	2E/	-tris	.	.
.	.	.	.	8A/L	tol-
.	.	.	.	8G/J	.
4AA,</	-tris	4E/	qui	2A/	.
!LO:TX:t=P:problem=kreska pseudotaktowa	!	!	!	!	!
4AA/	qui	2e\	tol-	.	.
=30-	=30-	=30-	=30-	=30-	=30-
*	*	*	*	*custos:B	*
!	!	!	!	!LO:TX:b:t=P:problem=# below	!
2E\	tol-	.	.	2G#X/	-lis
.	.	8B\	-lis	.	.
.	.	8B\	pec-	.	.
!	!	!	!	!LO:LB:g=original	!
4BB/	.	4.d\	-ca-	4B\	pec-
!LO:TX:t=P:problem=kreska pseudotaktowa	!	!	!	!	!
4GG/	-lis	.	.	4.B\	-ca-
.	.	8d\	-ta	.	.
4AA/	pec-	(2c\	mun-	.	.
.	.	.	.	8A\	.
4F\	-ca-	.	.	2A/	-ta
*	*	*custos:A	*	*	*
4D\	-ta	2B\)	.	.	.
!LO:TX:t=P:problem=kreska pseudotaktowa	!	!	!	!LO:TX:b:t=P:problem=# below	!
4E\	mun-	.	.	4G#X/	mun-
!	!	!LO:LB:g=original	!	!	!
=31-	=31-	=31-	=31-	=31-	=31-
2AA/	-di	2A/	-di	2A/	-di
!LO:TX:t=P:problem=kreska pseudotaktowa	!	!	!	!	!
2rC	.	4.A/	mi-	4.c\	mi-
.	.	8A/	-ſe-	8c\	-ſe-
0r	.	4.B\	-re-	4.d\	-re-
.	.	8B\	-re	8B\	-re
*	*	*	*ij	*	*ij
.	.	4.c\	mi-	4.e\	mi-
.	.	8B\	-ſe-	8d\	-ſe-
=32-	=32-	=32-	=32-	=32-	=32-
.	.	4A/	-re-	8c\L	-re-
.	.	.	.	8d\	.
.	.	4G/	-re	8.e\J	.
.	.	.	.	16e\	-re
*	*	*	*Xij	*	*Xij
.	.	4A/	no-	4e\	no-
.	.	4B\	.	4d#X\	.
=33-	=33-	=33-	=33-	=33-	=33-
*M3/1	*	*M3/1	*	*M3/1	*
1rE	.	0E	-bis	0e	-bis
1rE	.	.	.	.	.
!LO:TX:t=P:problem=kreska pseudotaktowa	!	!	!	!	!
1C	qui	1c	Qui	1e	qui
=34-	=34-	=34-	=34-	=34-	=34-
1.C	tol-	1.c	tol-	1.e	tol-
2C/	-lis	2c\	-lis	2e\	-lis
*custos:G	*	*	*	*custos:d	*
!LO:TX:t=P:problem=kreska pseudotaktowa	!	!	!	!	!
1C	pec-	1c	pec-	1e	pec-
!LO:LB:g=original	!	!	!	!	!
=35-	=35-	=35-	=35-	=35-	=35-
0GG	-ca-	0B	-ca-	0dny	-ca-
!LO:TX:t=P:problem=kreska pseudotaktowa	!	!	!	!	!
1GG	-ta	1B	-ta	1d	-ta
=36-	=36-	=36-	=36-	=36-	=36-
*	*	*lig	*	*	*
0C	mun-	1c	mun-	2e\	mun-
.	.	.	.	2d\	.
.	.	1e	.	2c\	.
.	.	.	.	2B\	.
*	*	*Xlig	*	*	*
*	*	*custos:d	*	*	*
1D	.	1d	.	1A	.
!	!	!LO:LB:g=original	!	!	!
=37-	=37-	=37-	=37-	=37-	=37-
!LO:TX:t=P:problem=kreska pseudotaktowa	!	!	!	!	!
0.GG	-di	0.d	-di	0.B	-di
=38-	=38-	=38-	=38-	=38-	=38-
1.G	sus-	1.B	sus-	1.d	Sus-
4G\	-ci-	4B\	-ci-	4d\	-ci-
4G\	-pe	4B\	-pe	4d\	-pe
2.F\	de-	2.c\	de-	2.f\	de-
!LO:TX:t=P:problem=kreska pseudotaktowa	!	!LO:TX:t=P:problem=kreska pseudotaktowa	!	!LO:TX:t=P:problem=kreska pseudotaktowa	!
4F\	-pre-	4c\	-pre-	4f\	-pre-
=39-	=39-	=39-	=39-	=39-	=39-
2.A\	-ca-	2.c\	-ca-	2.e\	-ca-
4A\	-ti-	4c\	-ti-	4e\	-ti-
2.E\	-o-	2.B\	-o-	2.e\	-o-
4E\	-ne(m)	4B\	-nem	4e\	-ne(m)
!LO:TX:t=P:problem=kreska pseudotaktowa	!	!	!	!	!
1F	no-	1A	n(o-	1c	n(o-
=40-	=40-	=40-	=40-	=40-	=40-
!LO:TX:t=P:problem=kreska pseudotaktowa	!	!	!	!	!
0.C	-ſtram	0.G	-st)ram	0.c	-st)ram
=41-	=41-	=41-	=41-	=41-	=41-
1.C	sus-	1.G	sus-	1.c	sus-
2C/	-ci-	2G/	-ci-	2c\	-ci-
*	*	*	*	*custos:e	*
!LO:TX:t=P:problem=kreska pseudotaktowa	!	!	!	!	!
1C	-pe	1G	-pe	1c	-pe
!	!	!	!	!LO:LB:g=original	!
=42-	=42-	=42-	=42-	=42-	=42-
0C	de-	0c	de-	0e	de-
*custos:E	*	*custos:G	*	*	*
!LO:TX:t=P:problem=kreska pseudotaktowa	!	!	!	!	!
1D	-pre-	1A	-pre-	1d	-pre-
!LO:LB:g=original	!	!LO:LB:g=original	!	!	!
=43-	=43-	=43-	=43-	=43-	=43-
1.E	-ca-	1.G	-ca-	1.B	-ca-
2E\	-ti-	2G/	-ti-	2e\	-ti-
!LO:TX:t=P:problem=kreska pseudotaktowa	!	!	!	!	!
1F	-o-	2A/	-o-	1d	-o-
.	.	2B\	.	.	.
=44-	=44-	=44-	=44-	=44-	=44-
1A	-nem	0c	-nem	1c	-nem
*lig	*	*	*	*	*
1F	no-	.	.	0d	n(o-
!LO:TX:t=P:problem=kreska pseudotaktowa	!	!	!	!	!
1G	.	1B	n(o-	.	.
*Xlig	*	*	*	*	*
=45-	=45-	=45-	=45-	=45-	=45-
0.C	-ſtram	0.c	-st)ram	0.e	-st)ram
=46-	=46-	=46-	=46-	=46-	=46-
*M2/1	*	*M2/1	*	*M2/1	*
*met(C|)	*	*met(C|)	*	*met(C|)	*
4rAA	.	4r	.	4r	.
!	!	!LO:TX:a:t=P:problem=# above	!	!	!
4AA/	Qui	4c#X\	Qui	4e\	Qui
4AA/	se-	4c#\	se-	4e\	se-
8AA/	-des	8c#\	-des	8e\	-des
!LO:TX:t=P:problem=kreska pseudotaktowa	!	!	!	!	!
8AA/	ad	8c#\	ad	8e\	ad
4D/	dex-	4d\	dex-	4A/	dex-
8D/	-te-	8d\	-te-	8A/	-te-
!LO:TX:b:t=P:problem=# below	!	!	!	!	!
8C#X/	-ra(m)	8e\	-ra(m)	8A/	-ra(m)
!LO:TX:t=P:problem=kreska pseudotaktowa	!	!	!	!	!
2D/	P(a-	2d\	Pa-	2A/	P(a-
=47-	=47-	=47-	=47-	=47-	=47-
4AA/	-t)ris	4c#X\	-tris	4A/	-t)ris
2A\	mi-	2A/	mi-	2c#X\	mi-
*	*	*custos:B-	*	*custos:d	*
!LO:TX:t=P:problem=kreska pseudotaktowa	!	!	!	!	!
4F\	-ſe-	4A/	-ſe-	4d\	-ſe-
!	!	!LO:LB:g=original	!	!LO:LB:g=original	!
4B-X\	-re-	4.B-X\	-re-	8.d\	-re-
.	.	.	.	16d\	-re
4G\	-re	.	.	2d\	no-
.	.	8B-\	-re	.	.
*custos:D	*	*	*	*	*
!LO:TX:t=P:problem=kreska pseudotaktowa	!	!	!	!	!
2A\	no-	2A/	no-	.	.
!	!	!	!	!LO:TX:a:t=P:problem=# above	!
.	.	.	.	4c#X\	.
!LO:LB:g=original	!	!	!	!	!
=48-	=48-	=48-	=48-	=48-	=48-
!LO:TX:t=P:problem=kreska pseudotaktowa	!	!	!	!	!
1D	-bis	1A	-bis.	1d	-bis
=49-	=49-	=49-	=49-	=49-	=49-
*M3/1	*	*M3/1	*	*M3/1	*
1.D	Quo-	1.A	Quo-	1.d	Quo-
2D/	-ni-	2A/	-ni-	2d\	-ni-
2BB/	-am	2Bny\	-am	2d\	-a(m)
!LO:TX:t=P:problem=kreska pseudotaktowa	!	!	!	!	!
2BB/	tu	2B\	tu	2d\	tu
=50-	=50-	=50-	=50-	=50-	=50-
2AA/	so-	1cny	So-	0.e	so-
2BB/	.	.	.	.	.
2Cny/	.	1c	-lus	.	.
2D/	.	.	.	.	.
!LO:TX:t=P:problem=kreska pseudotaktowa	!	!	!	!	!
1E	.	1B	tu	.	.
=51-	=51-	=51-	=51-	=51-	=51-
1F	-lus	2A/	ſo-	1cny	-lus
.	.	4B\	.	.	.
.	.	4c\	.	.	.
*	*	*	*	*lig	*
1D	.	2d\	.	1f	San-
.	.	2c\	-lus	.	.
!LO:TX:t=P:problem=kreska pseudotaktowa	!	!	!	!	!
1E	San-	1B	San-	1e	.
*	*	*	*	*Xlig	*
=52-	=52-	=52-	=52-	=52-	=52-
*	*	*custos:c	*	*	*
!LO:TX:t=P:problem=kreska pseudotaktowa	!	!	!	!	!
!	!	!LO:N:acc=-	!	!	!
0.AA	-ct(us)	0.cn	-ct(us)	0.e	-ct(us)
!	!	!LO:LB:g=original	!	!	!
=53-	=53-	=53-	=53-	=53-	=53-
1A	tu	1c	Tu	1e	Tu
1E	so-	1Bny	So-	1e	so-
!LO:TX:t=P:problem=kreska pseudotaktowa	!	!	!	!	!
1F	-l(us)	1A	-lus	1c	-l(us)
=54-	=54-	=54-	=54-	=54-	=54-
1.C	D(o-	1.G	D(o-	1.c	D(o-
2C/	-mi)-	2G/	-mi)-	2c\	-mi)-
2C/	-n(us)	2G/	-nus	2c\	-n(us)
*custos:F	*	*	*	*	*
2C/	tu	2G/	tu	2c\	tu
!LO:PB:g=original	!	!	!	!LO:LB:g=original	!
=55-	=55-	=55-	=55-	=55-	=55-
1F	so-	1A	So-	1c	So-
1C	-lus	1G	-lus	1c	-lus
!LO:TX:t=P:problem=kreska pseudotaktowa	!	!	!	!	!
1D	al-	1Fny	al-	1A	al-
=56-	=56-	=56-	=56-	=56-	=56-
1.AA	-tiſ-	1.E	-tiſ-	1.A	-tiſ-
2AA/	-si-	2E/	-si-	2A/	-si-
!LO:TX:t=P:problem=kreska pseudotaktowa	!	!	!	!	!
1AA	-m(us)	1E	-mus	1A	-m(us)
=57-	=57-	=57-	=57-	=57-	=57-
!	!	!	!	!LO:TX:a:t=P:problem=# above	!
1.A	JE-	0B	JE-	2c#X\	JE-
.	.	.	.	2B\	.
.	.	.	.	2c#\	.
4G\	.	.	.	2d\	.
4F\	.	.	.	.	.
!LO:TX:t=P:problem=kreska pseudotaktowa	!	!	!	!	!
1E	-SV	1A	-SV	1e	.
=58-	=58-	=58-	=58-	=58-	=58-
*	*	*lig	*	*	*
1F	CHri-	1A	CH-	1d	-SV
*lig	*	*	*	*lig	*
!	!	!LO:TX:a:t=P:problem=♭ above	!	!	!
1G	.	1B-X	.	1d	CHr(i-
*	*	*Xlig	*	*	*
!LO:TX:t=P:problem=kreska pseudotaktowa	!	!	!	!LO:TX:b:t=P:problem=# below	!
1A	.	1A	-RI-	1c#X	.
*Xlig	*	*	*	*Xlig	*
=59-	=59-	=59-	=59-	=59-	=59-
*	*	*custos:A	*	*	*
!LO:TX:t=P:problem=kreska pseudotaktowa	!	!	!	!	!
0.D	-ſte	0.A	-(STE)	0.d	-st)e
!	!	!LO:LB:g=original	!	!	!
=60-	=60-	=60-	=60-	=60-	=60-
1D	Cum	1A	Cum	1d	Cum
1BB	Sa(n)-	1Bny	S(an-	1d	S(an-
!LO:TX:t=P:problem=kreska pseudotaktowa	!	!	!	!	!
1AA	-cto	1c	-cto).	1e	-cto)
=61-	=61-	=61-	=61-	=61-	=61-
0E	Spi-	1c	Spi-	0e	Spi-
.	.	2B\	.	.	.
.	.	2A\	.	.	.
!LO:TX:t=P:problem=kreska pseudotaktowa	!	!	!	!	!
1E	-ri-	2.B\	.	1e	-ri-
.	.	4B\	-ri-	.	.
=62-	=62-	=62-	=62-	=62-	=62-
0AA	-tu	0c	-tu	0e	-tu
*custos:AA	*	*	*	*	*
!	!	!	!LO:PB:g=original	!	!
!LO:TX:t=P:problem=kreska pseudotaktowa	!	!	!	!LO:TX:t=P:problem=fragment nieczytelny	!
1AA	in	1c	in	1ryy	.
!LO:LB:g=original	!	!	!	!	!
=63-	=63-	=63-	=63-	=63-	=63-
1.AA	glo-	1.A	glo-	1.c#X	glo-
2AA/	-ri-	2A/	-ri-	2c#\	-ri-
!LO:TX:t=P:problem=kreska pseudotaktowa	!	!	!	!	!
1AA	-a	1A	-a	1c#	-a
=64-	=64-	=64-	=64-	=64-	=64-
0D	DE-	0A	DE-	0d	DE-
.	.	.	.	.	.
1D	-I	1A	-I	1d	-I
=65-	=65-	=65-	=65-	=65-	=65-
!LO:TX:t=P:problem=kreska pseudotaktowa	!	!	!	!	!
0.C	Pa-	0.c	Pa-	2e\	Pa-
.	.	.	.	2d\	.
.	.	.	.	2e\	.
.	.	.	.	2f\	.
.	.	.	.	1e	.
=66-	=66-	=66-	=66-	=66-	=66-
0FF	-tris	0c	-tris	1f	-tris
.	.	.	.	1f	.
!LO:TX:t=P:problem=kreska pseudotaktowa	!	!	!	!	!
1FF	in	1c	in	1f	in
=67-	=67-	=67-	=67-	=67-	=67-
1.FF	glo-	1.c	glo-	1f.	glo-
2FF/	-ri-	2c\	-ri-	2f\	-ri-
*	*	*custos:c	*	*	*
!LO:TX:t=P:problem=kreska pseudotaktowa	!	!	!	!	!
1FF	-a	1c	-a	1f	-a
!	!	!LO:PB:g=original	!	!	!
=68-	=68-	=68-	=68-	=68-	=68-
0.C	DE-	0.c	DE-	0e	DE-
.	.	.	.	1e	-I
=69-	=69-	=69-	=69-	=69-	=69-
*col	*	*col	*	*	*
1D	-I	1A	-I	0d	P(a-
!LO:TX:t=P:problem=kreska pseudotaktowa	!	!	!	!	!
0AA	Pa-	0A	P(a-	.	.
!	!	!	!	!LO:TX:a:t=P:problem=# above	!
.	.	.	.	1c#X	.
*Xcol	*	*Xcol	*	*	*
=70-	=70-	=70-	=70-	=70-	=70-
*	*	*	*	*custos:c#	*
!LO:TX:t=P:problem=kreska pseudotaktowa	!	!	!	!	!
0.D	tris	0.A	-t)ris	0.d	-t)ris
!	!	!	!	!LO:LB:g=original	!
=71-	=71-	=71-	=71-	=71-	=71-
0AA	A-	0A	A-	2c#X\	A-
.	.	.	.	2B\	.
!	!	!	!	!LO:TX:a:t=P:problem=# above	!
.	.	.	.	2c#X\	.
.	.	.	.	2d\	.
!LO:TX:t=P:problem=kreska pseudotaktowa	!	!	!	!LO:TX:a:t=P:problem=# above	!
1AA	-men	1A	-men	1c#X	.
=72-	=72-	=72-	=72-	=72-	=72-
*	*	*	*ij	*	*
0D	A-	0A	A-	2d\	.
.	.	.	.	2c#\	.
.	.	.	.	2d\	.
.	.	.	.	2e\	.
*custos:C	*	*	*	*	*
!LO:TX:t=P:problem=kreska pseudotaktowa	!	!	!	!	!
1D	-men	1A	-men	1d	.
!LO:LB:g=original	!	!	!	!	!
=73-	=73-	=73-	=73-	=73-	=73-
*	*ij	*	*	*	*
!LO:TX:t=P:problem=kreska pseudotaktowa	!	!	!	!	!
0.C	A-	0.c	A-	2e\	.
.	.	.	.	2f\	.
.	.	.	.	2e\	.
.	.	.	.	2f\	.
!	!	!	!	!LO:N:vis=4.	!
.	.	.	.	2g\	.
.	.	.	.	2e\	.
=74-	=74-	=74-	=74-	=74-	=74-
0.FF	-men	0.c	-men	0f	.
.	.	.	.	1f	-men
=75-	=75-	=75-	=75-	=75-	=75-
0FF	A-	0c	A-	0f	A-
!LO:TX:t=P:problem=kreska pseudotaktowa	!	!	!	!	!
1FF	-men	1c	-men	1cny	.
*	*Xij	*	*	*	*
=76-	=76-	=76-	=76-	=76-	=76-
0FF	A-	0A	A-	0.c	.
!LO:TX:t=P:problem=kreska pseudotaktowa	!	!	!	!	!
1C	-men	1G	-men	.	.
=77-	=77-	=77-	=77-	=77-	=77-
*col	*ij	*col	*	*col	*
1D	A-	1F	A-	1A	.
*	*	*custos:F	*	*custos:A	*
0AA	.	0E	.	0A	.
*Xcol	*	*Xcol	*	*Xcol	*
!	!	!LO:LB:g=original	!	!LO:LB:g=original	!
=78-	=78-	=78-	=78-	=78-	=78-
*M2/1	*	*M2/1	*	*M2/1	*
*met(C|)	*	*met(C|)	*	*met(C|)	*
!	!	!LO:TX:t=P:problem=metrum alla breve	!	!LO:TX:t=P:problem=metrum alla breve	!
4D\	-men	2F/	-men	2A/	-men
*	*Xij	*	*Xij	*	*
4D\	A-	.	.	.	.
4A\	.	2rF	.	4A/	A-
8E\L	.	.	.	4e\	.
!LO:TX:t=P:problem=kreska pseudotaktowa	!	!	!	!	!
8F\J	.	.	.	.	.
4G\	.	2r	.	8B\L	.
.	.	.	.	8c\J	.
8F\L	.	.	.	4d\	.
8G\J	.	.	.	.	.
4A\	.	4A/	A-	4c\	.
!LO:TX:t=P:problem=kreska pseudotaktowa	!	!	!	!	!
4E\	.	4e\	.	2B\	.
=79-	=79-	=79-	=79-	=79-	=79-
4G\	.	4B\	.	.	.
4F\	.	2d\	.	4A/	.
4E\	.	.	.	4G#X/	.
!LO:TX:t=P:problem=kreska pseudotaktowa	!	!	!	!	!
4AA/	.	4c\	.	4A/	.
1E	.	4B\	.	4B\	.
.	.	2A/	.	4c\	.
.	.	.	.	2B\	.
!	!	!LO:TX:b:t=P:problem=# below	!	!	!
.	.	4G#X/	.	.	.
=80-	=80-	=80-	=80-	=80-	=80-
0AAl;;	-men.	0Al;;	-men.	0c#Xl;<	-men.
==	==	==	==	==	==
*-	*-	*-	*-	*-	*-
!!!system-decoration: [(s1,s2,s3)]
!!!RDF**kern: > = above
!!!RDF**kern: < = below
!!!RDF**kern: l = terminal long
!!!ENC: Andrzej Kubiczek
!!!END: 2021-07-14
!!!ENC: Marcin Jachim
!!!END: 2021-06-23
